X: 9653
T: Daybreak
R: polka
M: 2/4
K: Gmajor
|:Bc/B/ AG|ED ED|G2 AB|d2 dc|
Bc/B/ AG|ED ED|G2 AB|AG G2:|
K: Dmaj
|:A2 AB|d2 dB|dc/d/ ef|a2 ag|
fg/f/ ed|Bd Ad|fd ec|1 d2 dB:|2 d2 dA||

